Obsidian-SemiLight/actions/16s/media-repeat-album-amarok.svg

<svg viewBox="0 0 16 16" xmlns="http://www.w3.org/2000/svg"><path d="m1 2v12h3v-1h-1v-10h10v3h1v-4zm11 5v1h-5c-1.108 0-2 .892-2 2h1c0-.554.446-1 1-1h5v1l2-1.5zm-5 4-2 1.5 2 1.5v-1h5c1.108 0 2-.892 2-2h-1c0 .554-.446 1-1 1h-5z" fill="#4d4d4d"/></svg>

<svg xmlns="http://www.w3.org/2000/svg" viewBox="0 0 16 16">
  <defs id="defs3051">
    <style type="text/css" id="current-color-scheme">
      .ColorScheme-Text {
        color:#4d4d4d;
      }
      </style>
  </defs>
 <path style="fill:currentColor;fill-opacity:1;stroke:none" 
     d="M 1 2 L 1 14 L 4 14 L 4 13 L 3 13 L 3 3 L 13 3 L 13 6 L 14 6 L 14 2 L 1 2 z M 12 7 L 12 8 L 7 8 C 5.892 8 5 8.892 5 10 L 6 10 C 6 9.446 6.446 9 7 9 L 12 9 L 12 10 L 14 8.5 L 12 7 z M 7 11 L 5 12.5 L 7 14 L 7 13 L 12 13 C 13.108 13 14 12.108 14 11 L 13 11 C 13 11.554 12.554 12 12 12 L 7 12 L 7 11 z "
     class="ColorScheme-Text"
     />
</svg>
